src/images/svg/symbols/markets-stocks-and-indices/asian-indices/hongkong-50.svg

<?xml version="1.0" encoding="UTF-8"?>
<svg width="32px" height="32px" viewBox="0 0 32 32" version="1.1" xmlns="http://www.w3.org/2000/svg" xmlns:xlink="http://www.w3.org/1999/xlink">
    <title>Hong Kong 50</title>
    <g id="Markets-to-trade" stroke="none" stroke-width="1" fill="none" fill-rule="evenodd">
        <g id="Markets-to-trade---stock-indices---options" transform="translate(-611.000000, -2510.000000)">
            <g id="Stock-Indices-trades-available-on-Deriv" transform="translate(0.000000, 1273.000000)">
                <g id="Instruments-available" transform="translate(324.000000, 1035.000000)">
                    <g id="Asia/Oceania" transform="translate(0.000000, 169.000000)">
                        <g id="content" transform="translate(146.000000, 33.000000)">
                            <g id="flag" transform="translate(141.000000, 0.000000)">
                                <rect id="bg" x="0" y="0" width="32" height="32"></rect>
                                <g id="flage" transform="translate(4.000000, 2.000000)">
                                    <g id="Group" transform="translate(0.000000, 6.000000)" fill-rule="nonzero">
                                        <g transform="translate(-0.000000, 0.000000)">
                                            <rect id="bg" fill="#F0371D" x="0" y="0" width="24" height="16" rx="2"></rect>
                                            <path d="M15.4771943,10.705096 C15.9502003,12.1608591 15.4440494,13.6300361 14.3466745,13.9865948 C13.9403506,12.7360584 13.2374362,12.8263373 13.0420102,12.224878 C12.8022457,11.4869586 12.7413838,11.299645 13.0619946,10.0327566 C13.3826054,8.76586823 12.0926472,8.89063141 12.633768,8.71481061 C13.7311429,8.35825188 15.0041882,9.24933302 15.4771943,10.705096 Z M11.6086734,9.23531382 C12.2868885,10.1687966 11.8328125,11.6548939 10.5944666,12.554605 C9.35612064,13.454316 7.802441,13.4269385 7.12422602,12.4934557 C8.18799586,11.7205815 7.88492298,11.079968 8.39655486,10.7082457 C9.02426652,10.2521864 9.18360496,10.1364203 10.4875616,10.0498492 C11.7915182,9.96327819 11.2742424,8.77500896 11.6086734,9.23531382 Z M9.24227901,11.2835774 C9.08748576,11.3960413 9.05363469,11.6133341 9.16667052,11.7689146 C9.27970635,11.9244951 9.49682472,11.959448 9.65161796,11.8469841 C9.80641121,11.7345202 9.84026228,11.5172274 9.72722645,11.3616469 C9.61419062,11.2060664 9.39707226,11.1711135 9.24227901,11.2835774 Z M14.0739702,11.1628366 C13.8910744,11.2222631 13.7907389,11.4179539 13.8498647,11.5999242 C13.9089904,11.7818946 14.1051877,11.8812361 14.2880835,11.8218096 C14.4709793,11.7623832 14.5713148,11.5666924 14.512189,11.384722 C14.4530633,11.2027516 14.256866,11.1034102 14.0739702,11.1628366 Z M6.31383303,5.14192426 C7.37760287,5.91479829 7.8932079,5.42859838 8.40483979,5.80032069 C9.03255144,6.25637992 9.19188988,6.37214607 9.67716863,7.58553061 C10.1624473,8.79891516 11.1327115,7.9397612 10.7982805,8.40006607 C10.1200655,9.33354891 8.56638587,9.36092639 7.3280399,8.46121538 C6.08969393,7.56150436 5.63561804,6.07540711 6.31383303,5.14192426 Z M15.2284592,5.46864709 C16.759139,5.46864709 18.0000001,6.40402592 18.0000001,7.55787417 C16.6851083,7.55787417 16.5537562,8.2542832 15.9213444,8.2542832 C15.1454501,8.2542832 14.948497,8.2542832 13.8426887,7.55787417 C12.7368804,6.86146515 12.4569182,8.12684226 12.4569182,7.55787417 C12.4569182,6.40402592 13.6977794,5.46864709 15.2284592,5.46864709 Z M7.63472413,6.85891842 C7.52168829,7.0144989 7.55553937,7.23179178 7.71033261,7.34425565 C7.86512586,7.45671953 8.08224423,7.42176662 8.19528006,7.26618615 C8.30831589,7.11060567 8.27446481,6.8933128 8.11967157,6.78084892 C7.96487832,6.66838504 7.74775996,6.70333795 7.63472413,6.85891842 Z M13.0354311,2.09156718 C12.6291072,3.34210362 13.2508415,3.68222913 13.0554155,4.28368847 C12.815651,5.02160777 12.7547891,5.20892134 11.7507511,6.04540531 C10.7467132,6.88188928 11.8636453,7.53917216 11.3225245,7.36335135 C10.2251496,7.00679263 9.71899869,5.53761559 10.1920047,4.08185259 C10.6650108,2.62608959 11.9380561,1.73500846 13.0354311,2.09156718 Z M15.5749018,6.59629985 C15.3835668,6.59629985 15.2284592,6.75219632 15.2284592,6.94450436 C15.2284592,7.1368124 15.3835668,7.29270887 15.5749018,7.29270887 C15.7662367,7.29270887 15.9213444,7.1368124 15.9213444,6.94450436 C15.9213444,6.75219632 15.7662367,6.59629985 15.5749018,6.59629985 Z M11.3711233,4.09915429 C11.3119975,4.28112466 11.412333,4.47681545 11.5952288,4.53624191 C11.7781246,4.59566836 11.9743218,4.49632688 12.0334477,4.31435651 C12.0925735,4.13238614 11.9922379,3.93669534 11.8093421,3.87726889 C11.6264463,3.81784244 11.430249,3.91718391 11.3711233,4.09915429 Z" id="emblem" fill="#FFFFFF"></path>
                                            <rect id="border" stroke-opacity="0.04" stroke="#000000" x="0.50000005" y="0.499999983" width="23" height="15" rx="1"></rect>
                                        </g>
                                    </g>
                                    <g id="badge" transform="translate(15.000000, 0.000000)">
                                        <rect id="bg" fill="#0E0E0E" x="0" y="0" width="11" height="8" rx="1"></rect>
                                        <path d="M3.67,6.072 C3.89,6.072 4.087,6.038 4.261,5.97 C4.435,5.902 4.583,5.807 4.705,5.685 C4.827,5.563 4.92,5.417 4.984,5.247 C5.048,5.077 5.08,4.89 5.08,4.686 C5.08,4.482 5.049,4.3 4.987,4.14 C4.925,3.98 4.838,3.845 4.726,3.735 C4.614,3.625 4.482,3.54 4.33,3.48 C4.178,3.42 4.012,3.39 3.832,3.39 C3.612,3.39 3.439,3.432 3.313,3.516 C3.187,3.6 3.074,3.712 2.974,3.852 L2.974,3.852 L2.932,3.852 L3.052,2.256 L4.888,2.256 L4.888,1.812 L2.644,1.812 L2.494,4.116 L2.92,4.176 C3.008,4.08 3.107,3.997 3.217,3.927 C3.327,3.857 3.478,3.822 3.67,3.822 C3.958,3.822 4.176,3.898 4.324,4.05 C4.472,4.202 4.546,4.416 4.546,4.692 L4.546,4.692 L4.546,4.752 C4.546,5.028 4.472,5.242 4.324,5.394 C4.176,5.546 3.958,5.622 3.67,5.622 C3.542,5.622 3.432,5.609 3.34,5.583 C3.248,5.557 3.167,5.52 3.097,5.472 C3.027,5.424 2.963,5.366 2.905,5.298 C2.847,5.23 2.792,5.154 2.74,5.07 L2.74,5.07 L2.362,5.358 C2.426,5.45 2.497,5.538 2.575,5.622 C2.653,5.706 2.744,5.782 2.848,5.85 C2.952,5.918 3.071,5.972 3.205,6.012 C3.339,6.052 3.494,6.072 3.67,6.072 Z M7.3,6.072 C7.8,6.072 8.165,5.882 8.395,5.502 C8.625,5.122 8.74,4.59 8.74,3.906 C8.74,3.222 8.625,2.69 8.395,2.31 C8.165,1.93 7.8,1.74 7.3,1.74 C6.8,1.74 6.435,1.93 6.205,2.31 C5.975,2.69 5.86,3.222 5.86,3.906 C5.86,4.59 5.975,5.122 6.205,5.502 C6.435,5.882 6.8,6.072 7.3,6.072 Z M7.3,5.634 C7.136,5.634 6.996,5.6 6.88,5.532 C6.764,5.464 6.67,5.368 6.598,5.244 C6.526,5.12 6.473,4.974 6.439,4.806 C6.405,4.638 6.388,4.452 6.388,4.248 L6.388,4.248 L6.388,3.564 C6.388,3.36 6.405,3.174 6.439,3.006 C6.473,2.838 6.526,2.692 6.598,2.568 C6.67,2.444 6.764,2.348 6.88,2.28 C6.996,2.212 7.136,2.178 7.3,2.178 C7.464,2.178 7.604,2.212 7.72,2.28 C7.836,2.348 7.93,2.444 8.002,2.568 C8.074,2.692 8.127,2.838 8.161,3.006 C8.195,3.174 8.212,3.36 8.212,3.564 L8.212,3.564 L8.212,4.248 C8.212,4.452 8.195,4.638 8.161,4.806 C8.127,4.974 8.074,5.12 8.002,5.244 C7.93,5.368 7.836,5.464 7.72,5.532 C7.604,5.6 7.464,5.634 7.3,5.634 Z" id="50" fill="#FFFFFF" fill-rule="nonzero"></path>
                                    </g>
                                </g>
                            </g>
                        </g>
                    </g>
                </g>
            </g>
        </g>
    </g>
</svg>

<svg width="32" height="32" xmlns="http://www.w3.org/2000/svg"><g fill="none" fill-rule="evenodd"><path d="M0 0h32v32H0z"/><g transform="translate(4 8)" fill-rule="nonzero"><rect fill="#F0371D" width="24" height="16" rx="2"/><path d="M15.477 10.705c.473 1.456-.033 2.925-1.13 3.282-.407-1.25-1.11-1.16-1.305-1.762-.24-.738-.3-.925.02-2.192.32-1.267-.97-1.142-.428-1.318 1.097-.357 2.37.534 2.843 1.99zm-3.868-1.47c.678.934.224 2.42-1.015 3.32-1.238.9-2.792.872-3.47-.062 1.064-.772.76-1.413 1.273-1.785.627-.456.787-.572 2.09-.658 1.305-.087.787-1.275 1.122-.815zm-2.367 2.049a.347.347 0 0 0-.075.485c.113.155.33.19.485.078a.347.347 0 0 0 .075-.485.347.347 0 0 0-.485-.078zm4.832-.121a.347.347 0 0 0-.224.437.347.347 0 0 0 .662-.215.347.347 0 0 0-.438-.222zm-7.76-6.021c1.064.773 1.58.287 2.09.658.629.456.788.572 1.273 1.786.485 1.213 1.456.354 1.121.814-.678.934-2.232.96-3.47.061-1.238-.9-1.692-2.386-1.014-3.32zm8.914.327c1.531 0 2.772.935 2.772 2.089-1.315 0-1.446.696-2.079.696-.776 0-.973 0-2.078-.696-1.106-.697-1.386.569-1.386 0 0-1.154 1.24-2.09 2.771-2.09zm-7.593 1.39a.347.347 0 0 0 .075.485.347.347 0 0 0 .485-.078.347.347 0 0 0-.075-.485.347.347 0 0 0-.485.078zm5.4-4.767c-.406 1.25.216 1.59.02 2.192-.24.738-.3.925-1.304 1.761-1.004.837.113 1.494-.428 1.318-1.098-.356-1.604-1.825-1.131-3.281.473-1.456 1.746-2.347 2.843-1.99zm2.54 4.504a.347.347 0 0 0-.347.349.347.347 0 1 0 .693 0 .347.347 0 0 0-.346-.349zM11.37 4.1a.347.347 0 0 0 .224.437.347.347 0 1 0 .214-.659.347.347 0 0 0-.438.222z" fill="#FFF"/><rect stroke-opacity=".04" stroke="#000" x=".5" y=".5" width="23" height="15" rx="1"/></g><g transform="translate(19 2)"><rect fill="#0E0E0E" width="11" height="8" rx="1"/><path d="M3.67 6.072c.22 0 .417-.034.591-.102a1.217 1.217 0 0 0 .723-.723 1.58 1.58 0 0 0 .096-.561c0-.204-.031-.386-.093-.546a1.132 1.132 0 0 0-.657-.66 1.345 1.345 0 0 0-.498-.09c-.22 0-.393.042-.519.126a1.317 1.317 0 0 0-.339.336h-.042l.12-1.596h1.836v-.444H2.644l-.15 2.304.426.06c.088-.096.187-.179.297-.249.11-.07.261-.105.453-.105.288 0 .506.076.654.228.148.152.222.366.222.642v.06c0 .276-.074.49-.222.642-.148.152-.366.228-.654.228-.128 0-.238-.013-.33-.039a.82.82 0 0 1-.243-.111.982.982 0 0 1-.192-.174 1.856 1.856 0 0 1-.165-.228l-.378.288c.064.092.135.18.213.264a1.358 1.358 0 0 0 .63.39c.134.04.289.06.465.06zm3.63 0c.5 0 .865-.19 1.095-.57.23-.38.345-.912.345-1.596S8.625 2.69 8.395 2.31c-.23-.38-.595-.57-1.095-.57s-.865.19-1.095.57c-.23.38-.345.912-.345 1.596s.115 1.216.345 1.596c.23.38.595.57 1.095.57zm0-.438a.817.817 0 0 1-.42-.102.78.78 0 0 1-.282-.288 1.433 1.433 0 0 1-.159-.438 2.82 2.82 0 0 1-.051-.558v-.684c0-.204.017-.39.051-.558.034-.168.087-.314.159-.438a.78.78 0 0 1 .282-.288.817.817 0 0 1 .42-.102c.164 0 .304.034.42.102a.78.78 0 0 1 .282.288c.072.124.125.27.159.438.034.168.051.354.051.558v.684c0 .204-.017.39-.051.558a1.433 1.433 0 0 1-.159.438.78.78 0 0 1-.282.288.817.817 0 0 1-.42.102z" fill="#FFF" fill-rule="nonzero"/></g></g></svg>
